X:1
T:Title
%%score ( 1 2 ) ( 3 4 )
L:1/8
Q:1/4=100
M:4/4
K:F
V:1 treble nm="Midi_20"
V:2 treble 
V:3 bass nm="Midi_20"
V:4 bass 
V:1
"^Falkland (88. 88. 88)""^Henry Lawes\n(1596-1662)" c4 A2 F2 | B2 A2 G2 G2 | F4 || F4 | %4
 E2 C2 F2 G2 | A2 B2 c4 || c4 A2 d2 | c2 B2 A2 F2 | G4 || c4 | =B2 c2 d2 c2 | c2 =B2 c4 || %12
 G4 G2 G2 | A2 F2 G2 A2 | B4 || G4 | A2 B2 c2 G2 | A2 G2 F4 |] %18
V:2
 F4 E2 D2 | DE F2 F2 E2 | F4 || C4 | C2 C2 A,2 C2 | C2 F2 (F2 E2) || F4 F2 E2 | F2 D2 E2 D2 | E4 || %9
 C4 | F2 E2 DE F2 | G3 F E4 || D4 E2 C2 | C2 D2 G2 _E2 | F4 || =E4 | F2 F2 FE D2 | C2 CB, A,4 |] %18
V:3
 A,4 C2 A,2 | G,2 C2 D2 C2 | A,4 || F,4 | G,2 E,2 F,2 E,2 | F,2 F,2 G,4 || A,4 A,2 B,2 | %7
 C2 D2 C2 A,2 | C4 || G,4 | D2 C2 A,2 C2 | D2 D2 C4 || B,4 C2 CB, | A,2 B,2 B,2 C2 | D4 || C4 | %16
 C2 F,2 F,2 F,2 | F,2 E,2 F,4 |] %18
V:4
 F,4 C,2 D,2 | G,,2 A,,2 B,,2 C,2 | F,,4 || A,,4 | C,2 C,2 D,2 C,2 | F,2 D,2 C,4 || F,4 F,,2 G,,2 | %7
 A,,2 B,,2 C,2 D,2 | C,4 || E,4 | D,2 A,2 F,2 A,2 | G,2 G,2 C,4 || G,4 C,2 E,2 | %13
 F,2 D,2 _E,D, C,2 | B,,4 || C,4 | F,2 D,2 A,,2 B,,2 | C,2 C,2 F,,4 |] %18

